icons/orthopaedics.svg

<svg width="48" height="48" viewBox="0 0 48 48" fill="none" xmlns="http://www.w3.org/2000/svg">
<path fill-rule="evenodd" clip-rule="evenodd" d="M39 8H9C8.44771 8 8 8.44772 8 9V39C8 39.5523 8.44772 40 9 40H39C39.5523 40 40 39.5523 40 39V9C40 8.44771 39.5523 8 39 8ZM9 6C7.34315 6 6 7.34315 6 9V39C6 40.6569 7.34315 42 9 42H39C40.6569 42 42 40.6569 42 39V9C42 7.34315 40.6569 6 39 6H9Z" fill="black"/>
<path fill-rule="evenodd" clip-rule="evenodd" d="M18.4169 10.9803C17.8143 10.8675 17.25 11.3248 17.25 11.9379C17.25 12.4722 16.8168 12.9054 16.2825 12.9054H16C15.4477 12.9054 15 13.3531 15 13.9054V14.7794C15 15.3316 15.4477 15.7794 16 15.7794H16.25C16.8023 15.7794 17.25 16.2271 17.25 16.7794V17.1574C17.25 17.6147 17.5617 18.0153 18.0064 18.122C22.6766 19.2432 25.5388 19.2443 30.0044 18.1275C30.444 18.0176 30.75 17.6195 30.75 17.1663V16.7794C30.75 16.2271 31.1977 15.7794 31.75 15.7794H32C32.5523 15.7794 33 15.3316 33 14.7794V13.9054C33 13.3531 32.5523 12.9054 32 12.9054H31.7162C31.1826 12.9054 30.75 12.4729 30.75 11.9393C30.75 11.326 30.1848 10.8692 29.5822 10.9829C25.39 11.7738 22.6084 11.7644 18.4169 10.9803ZM20.5 13.7377C20.5 13.1854 20.0523 12.7377 19.5 12.7377C18.9477 12.7377 18.5 13.1854 18.5 13.7377V15.9779C18.5 16.5302 18.9477 16.9779 19.5 16.9779C20.0523 16.9779 20.5 16.5302 20.5 15.9779V13.7377Z" fill="black"/>
<path fill-rule="evenodd" clip-rule="evenodd" d="M18.4169 19.9803C17.8143 19.8675 17.25 20.3248 17.25 20.9379C17.25 21.4722 16.8168 21.9054 16.2825 21.9054H16C15.4477 21.9054 15 22.3531 15 22.9054V23.7794C15 24.3316 15.4477 24.7794 16 24.7794H16.25C16.8023 24.7794 17.25 25.2271 17.25 25.7794V26.1574C17.25 26.6147 17.5617 27.0153 18.0064 27.122C22.6766 28.2432 25.5388 28.2443 30.0044 27.1275C30.444 27.0176 30.75 26.6195 30.75 26.1663V25.7794C30.75 25.2271 31.1977 24.7794 31.75 24.7794H32C32.5523 24.7794 33 24.3316 33 23.7794V22.9054C33 22.3531 32.5523 21.9054 32 21.9054H31.7162C31.1826 21.9054 30.75 21.4729 30.75 20.9393C30.75 20.326 30.1848 19.8692 29.5822 19.9829C25.39 20.7738 22.6084 20.7644 18.4169 19.9803ZM20.5 22.7377C20.5 22.1854 20.0523 21.7377 19.5 21.7377C18.9477 21.7377 18.5 22.1854 18.5 22.7377V24.9779C18.5 25.5302 18.9477 25.9779 19.5 25.9779C20.0523 25.9779 20.5 25.5302 20.5 24.9779V22.7377Z" fill="black"/>
<path fill-rule="evenodd" clip-rule="evenodd" d="M18.4169 28.9803C17.8143 28.8675 17.25 29.3248 17.25 29.9379C17.25 30.4722 16.8168 30.9054 16.2825 30.9054H16C15.4477 30.9054 15 31.3531 15 31.9054V32.7794C15 33.3316 15.4477 33.7794 16 33.7794H16.25C16.8023 33.7794 17.25 34.2271 17.25 34.7794V35.1574C17.25 35.6147 17.5617 36.0153 18.0064 36.122C22.6766 37.2432 25.5388 37.2443 30.0044 36.1275C30.444 36.0176 30.75 35.6195 30.75 35.1663V34.7794C30.75 34.2271 31.1977 33.7794 31.75 33.7794H32C32.5523 33.7794 33 33.3316 33 32.7794V31.9054C33 31.3531 32.5523 30.9054 32 30.9054H31.7162C31.1826 30.9054 30.75 30.4729 30.75 29.9393C30.75 29.326 30.1848 28.8692 29.5822 28.9829C25.39 29.7738 22.6084 29.7644 18.4169 28.9803ZM20.5 31.7377C20.5 31.1854 20.0523 30.7377 19.5 30.7377C18.9477 30.7377 18.5 31.1854 18.5 31.7377V33.9779C18.5 34.5302 18.9477 34.9779 19.5 34.9779C20.0523 34.9779 20.5 34.5302 20.5 33.9779V31.7377Z" fill="black"/>
</svg>

<svg
  xmlns="http://www.w3.org/2000/svg"
  width="24"
  height="24"
  viewBox="0 0 24 24"
  fill="none"
  stroke="currentColor"
  stroke-width="2"
  stroke-linecap="round"
  stroke-linejoin="round"
>
  <path
    fill-rule="evenodd"
    d="M39 8H9a1 1 0 0 0-1 1v30a1 1 0 0 0 1 1h30a1 1 0 0 0 1-1V9a1 1 0 0 0-1-1M9 6a3 3 0 0 0-3 3v30a3 3 0 0 0 3 3h30a3 3 0 0 0 3-3V9a3 3 0 0 0-3-3z"
    clip-rule="evenodd"
  />
  <path
    fill-rule="evenodd"
    d="M18.417 10.98a.982.982 0 0 0-1.167.958.97.97 0 0 1-.968.967H16a1 1 0 0 0-1 1v.874a1 1 0 0 0 1 1h.25a1 1 0 0 1 1 1v.378a.99.99 0 0 0 .756.965c4.67 1.121 7.533 1.122 11.998.006a.99.99 0 0 0 .746-.962v-.387a1 1 0 0 1 1-1H32a1 1 0 0 0 1-1v-.874a1 1 0 0 0-1-1h-.284a.966.966 0 0 1-.966-.966.98.98 0 0 0-1.168-.956c-4.192.79-6.974.781-11.165-.003m2.083 2.758a1 1 0 1 0-2 0v2.24a1 1 0 1 0 2 0z"
    clip-rule="evenodd"
  />
  <path
    fill-rule="evenodd"
    d="M18.417 19.98a.982.982 0 0 0-1.167.958.97.97 0 0 1-.968.967H16a1 1 0 0 0-1 1v.874a1 1 0 0 0 1 1h.25a1 1 0 0 1 1 1v.378a.99.99 0 0 0 .756.965c4.67 1.121 7.533 1.122 11.998.006a.99.99 0 0 0 .746-.962v-.387a1 1 0 0 1 1-1H32a1 1 0 0 0 1-1v-.874a1 1 0 0 0-1-1h-.284a.966.966 0 0 1-.966-.966.98.98 0 0 0-1.168-.956c-4.192.79-6.974.781-11.165-.003m2.083 2.758a1 1 0 1 0-2 0v2.24a1 1 0 1 0 2 0z"
    clip-rule="evenodd"
  />
  <path
    fill-rule="evenodd"
    d="M18.417 28.98a.982.982 0 0 0-1.167.958.97.97 0 0 1-.968.967H16a1 1 0 0 0-1 1v.874a1 1 0 0 0 1 1h.25a1 1 0 0 1 1 1v.378a.99.99 0 0 0 .756.965c4.67 1.121 7.533 1.122 11.998.005a.99.99 0 0 0 .746-.96v-.388a1 1 0 0 1 1-1H32a1 1 0 0 0 1-1v-.874a1 1 0 0 0-1-1h-.284a.966.966 0 0 1-.966-.966.98.98 0 0 0-1.168-.956c-4.192.79-6.974.781-11.165-.003m2.083 2.758a1 1 0 1 0-2 0v2.24a1 1 0 1 0 2 0z"
    clip-rule="evenodd"
  />
</svg>
